X:1
T:Hackstreet Boy
L:1/8
M:4/4
I:linebreak $
K:C
V:1 treble nm="Piano" snm="Pno."
V:1
 z4 z2 ed | d4 A4 | A3 ^G3 ed | d4 A4 | A3 ^G3 ed | d4 A4 | A2 c2 d2 A2 | A4 z4 | A2 c2 d2 aa |] %9
w: I am|Ro- boy.|Yeh, yeh. I'm a|cuhl boy.|Yeh, yeh. I ken|sing now.|Rock my bah- dee|right.|Hack- street- boy al- right.|

